X:1
T:Tinking Tom was an honest man
T:Samuel Ackeroyd
%%score [ 1 2 3 ]
L:1/8
M:4/4
K:A
V:1 treble nm="I"
V:2 treble nm="II"
V:3 treble nm="III"
V:1
|: E2 E2 A2 B c | (dc) (BA) B2 A G | A2 G2 A2 E2 | A2 E2 A2 B c | B2 c2 (dc) (BA) | B B3 z2 G2 | %6
w: Tin- king Tom was an|hon- * est _ man, tink a|tink, tink, tink, tink,|tink, tink, tink, and a|lad of bon- * ny _|met- tle, he|
 A3 B (cB) d2 | c2 (BA) d2 c B | c2 z2 z2 B A | B2 e2 c2 z2 | z2 d2 B2 z2 | z2 (cd) e2 (dc) | %12
w: dex'- trous- ly _ could|clink the _ pan, clink a|clink, clink a|clink, and stop,|and stop,|and _ stop a _|
 (dc) B A A A3 :| %13
w: hole _ i' th' ket- tle.|
V:2
|: z2 e2 c2 B A | (GA) (Bc) d2 (cB) | c2 z2 z2 e2 | c2 z2 z2 B A | G2 A2 (BA) (GF) | G G3 z2 e2 | %6
w: To him did my|la- * dy's _ maid ad- *|vance, ad-|vance, come, come|in thou man _ of _|met- tle, a|
 c3 d e2 z2 | z2 (dc) B2 A2 | e2 z2 z2 d c | d2 z2 z2 B2 | e2 z2 z2 A2 | e2 z2 z2 B A | %12
w: sad mis- chance,|a _ sad mis-|chance, here's a|hole, a|hole, a|hole, in my|
 (GA) B2 c c3 :| %13
w: la- * dy's ket- tle.|
V:3
|: G2 G c A2 A,2 | E2 (DC) B,2 E2 | A2 E D C2 c B | A2 (AG) F2 D F | B,2 A F G2 A2 | E E3 z2 E2 | %6
w: Tom went to hamm'- ring|on the _ place, and|wrought like a man, like a|man, and _ wrought like a|man, like a man of|met- tle, but|
 A,2 A A G2 B2 | e2 A2 G2 A A | E2 E D C2 z2 | z2 c B A2 e d | c2 z2 z2 c B | A2 z2 z2 G A | %12
w: when he had done 'twas|all a case, all a|case, all a case,|all a case, there's a|hole, there's a|hole, in my|
 E3 E A, A,3 :| %13
w: la- dy's ket- tle.|

